X: 10282
T: Dogs Among The Bushes, The
R: reel
M: 4/4
K: Gmixolydian
|BG~G2 DG~G2|BGAB cedc|BG~G2 DGBG|AFAc fdcA|
BG~G2 DG~G2|BGAB cedc|BABc defd|cAFe fdcA:|
g3g2 agf|dgga bgaf|dffe fgfd|cdfg afgf|
dggf gagf|dgga bgag|bggf d3e|f2fe fdcA:|

